svg/emoji_u1f95b.svg

<?xml version="1.0" encoding="UTF-8" standalone="no"?>
<!DOCTYPE svg PUBLIC "-//W3C//DTD SVG 1.1//EN" "http://www.w3.org/Graphics/SVG/1.1/DTD/svg11.dtd">
<svg width="100%" height="100%" viewBox="0 0 128 128" version="1.1" xmlns="http://www.w3.org/2000/svg" xmlns:xlink="http://www.w3.org/1999/xlink" xml:space="preserve" xmlns:serif="http://www.serif.com/" style="fill-rule:evenodd;clip-rule:evenodd;stroke-linejoin:round;stroke-miterlimit:2;">
    <path id="path15955" d="M72.9,72.09C73.27,72.46 94.71,54.23 94.71,54.23L96.93,23.7L78.42,31.67L47.18,30.44L31.5,23.33L33.95,53.29C33.94,53.29 72.54,71.73 72.9,72.09Z" style="fill:white;fill-opacity:0.5;fill-rule:nonzero;"/>
    <path id="path15957" d="M62.69,5.93L46.82,7.46L34.85,11.78L28.17,18.74L37.27,113.4C37.27,113.4 43.76,124.4 63.81,124.4C83.86,124.4 91.6,114.38 91.6,114.38L100,19.57L95.27,12.75L77.31,7.04L62.69,5.93Z" style="fill:rgb(203,219,224);fill-opacity:0.7;fill-rule:nonzero;"/>
    <g id="g16113" transform="matrix(1.12999,0,0,1.12999,-8.3502,-0.861455)">
        <clipPath id="_clip1">
            <path d="M62.868,6.01L48.824,7.364L38.231,11.187L32.319,17.347L40.372,101.117C40.372,101.117 46.116,110.852 63.859,110.852C81.603,110.852 88.452,101.984 88.452,101.984L95.886,18.081L91.7,12.046L75.806,6.992L62.868,6.01Z"/>
        </clipPath>
        <g clip-path="url(#_clip1)">
            <path id="path15961" d="M38.95,62.63L35.91,56.65C35.91,56.65 35.85,54.88 36.09,53.82C36.33,52.76 38.14,47.78 49.96,45.42C59.34,43.54 71.25,43.71 79.9,46.07C85.76,47.67 91.5,50.78 92.29,53.87C93.19,57.38 91.64,58.88 91.64,58.88L85.77,68.26L42.86,67.69L38.95,62.63Z" style="fill:rgb(250,250,250);fill-rule:nonzero;"/>
            <path id="path15963" d="M40.75,104.8C41.13,106.09 47.19,113.61 63.67,113.61C80.15,113.61 87.49,107.49 87.65,106.1C87.81,104.71 92.46,57.07 92.46,57.07C92.46,57.07 85.69,65.88 64.15,65.47C42.61,65.06 35.92,56.61 35.92,56.61C35.92,56.61 40.34,103.42 40.75,104.8Z" style="fill:rgb(255,248,225);fill-rule:nonzero;"/>
        </g>
    </g>
    <g id="g15975">
        <path id="path15973" d="M65.13,34.26L64.42,34.26C41.94,34.12 33.52,28.23 30.5,24.58C28.54,22.2 27.9,19.61 28.37,17.09L28.37,17.01C30.63,10.26 43.37,4.26 64.07,4.18C87.4,4.09 99.36,12.32 99.94,17.93C100.12,19.73 99.79,22.88 97.11,25.7C92.23,30.81 80.68,34.26 65.13,34.26ZM33.13,17.91C32.82,19.56 32.74,20.91 34.15,22.61C36.31,25.22 42.35,30.59 64.4,30.73L65.14,30.73C84.9,30.73 91.21,26.38 93.85,23.47C95.33,21.84 95.91,20.4 95.74,18.68C95.35,14.99 85.6,7.93 64.32,8.05C41.66,8.17 33.97,13.91 33.24,17.79L33.13,17.91Z" style="fill:rgb(147,177,187);fill-rule:nonzero;"/>
    </g>
</svg>

<?xml version="1.0" encoding="UTF-8" standalone="no"?>
<!-- Generator: Adobe Illustrator 25.2.3, SVG Export Plug-In . SVG Version: 6.00 Build 0)  -->

<svg
   version="1.1"
   id="Layer_2"
   x="0px"
   y="0px"
   viewBox="0 0 128 128"
   style="enable-background:new 0 0 128 128;"
   xml:space="preserve"
   sodipodi:docname="emoji_u1f95b.svg"
   inkscape:version="1.2.2 (732a01da63, 2022-12-09)"
   xmlns:inkscape="http://www.inkscape.org/namespaces/inkscape"
   xmlns:sodipodi="http://sodipodi.sourceforge.net/DTD/sodipodi-0.dtd"
   xmlns="http://www.w3.org/2000/svg"
   xmlns:svg="http://www.w3.org/2000/svg"><defs
   id="defs15982"><clipPath
     clipPathUnits="userSpaceOnUse"
     id="clipPath16121"><path
       style="opacity:0.7;fill:#e0e0e0;stroke-width:1"
       d="m 62.867978,6.0101894 -14.04437,1.353994 -10.593012,3.8230416 -5.911556,6.159346 8.053167,83.770639 c 0,0 5.743413,9.7346 23.48693,9.7346 17.743516,0 24.593133,-8.86734 24.593133,-8.86734 L 95.885963,18.081091 91.700086,12.04564 75.806143,6.9924988 Z"
       id="path16123"
       sodipodi:nodetypes="cccccsccccc" /></clipPath></defs><sodipodi:namedview
   id="namedview15980"
   pagecolor="#ffffff"
   bordercolor="#000000"
   borderopacity="0.25"
   inkscape:showpageshadow="2"
   inkscape:pageopacity="0.0"
   inkscape:pagecheckerboard="0"
   inkscape:deskcolor="#d1d1d1"
   showgrid="false"
   inkscape:zoom="2.9996795"
   inkscape:cx="91.176406"
   inkscape:cy="70.340847"
   inkscape:window-width="1366"
   inkscape:window-height="697"
   inkscape:window-x="-8"
   inkscape:window-y="-8"
   inkscape:window-maximized="1"
   inkscape:current-layer="Layer_2" />
<path
   style="opacity:0.5;fill:#FFFFFF;"
   d="M72.9,72.09c0.37,0.37,21.81-17.86,21.81-17.86l2.22-30.53l-18.51,7.97l-31.24-1.23  l-15.68-7.11l2.45,29.96C33.94,53.29,72.54,71.73,72.9,72.09z"
   id="path15955" />
<path
   style="opacity:0.7;fill:#e0e0e0"
   d="m 62.69,5.93 -15.87,1.53 -11.97,4.32 -6.68,6.96 9.1,94.66 c 0,0 6.49,11 26.54,11 20.05,0 27.79,-10.02 27.79,-10.02 L 100,19.57 95.27,12.75 77.31,7.04 Z"
   id="path15957"
   sodipodi:nodetypes="cccccsccccc" />


<g
   id="g16113"
   transform="matrix(1.1299902,0,0,1.1299902,-8.3501986,-0.86145509)"
   style="stroke-width:0.884965"
   clip-path="url(#clipPath16121)"><path
     style="fill:#fcf9e9;stroke-width:0.643936"
     d="m 38.95,62.63 -3.04,-5.98 c 0,0 -0.06,-1.77 0.18,-2.83 0.24,-1.06 2.05,-6.04 13.87,-8.4 9.38,-1.88 21.29,-1.71 29.94,0.65 5.86,1.6 11.6,4.71 12.39,7.8 0.9,3.51 -0.65,5.01 -0.65,5.01 l -5.87,9.38 -42.91,-0.57 z"
     id="path15961" /><path
     style="fill:#f0e7ba;stroke-width:0.643936"
     d="m 40.75,104.8 c 0.38,1.29 6.44,8.81 22.92,8.81 16.48,0 23.82,-6.12 23.98,-7.51 0.16,-1.39 4.81,-49.03 4.81,-49.03 0,0 -6.77,8.81 -28.31,8.4 -21.54,-0.41 -28.23,-8.86 -28.23,-8.86 0,0 4.42,46.81 4.83,48.19 z"
     id="path15963" /></g>




<g
   id="g15975">
	<path
   style="fill:#C8C8C8;"
   d="M65.13,34.26c-0.24,0-0.48,0-0.71,0c-22.48-0.14-30.9-6.03-33.92-9.68   c-1.96-2.38-2.6-4.97-2.13-7.49v-0.08c2.26-6.75,15-12.75,35.7-12.83c23.33-0.09,35.29,8.14,35.87,13.75   c0.18,1.8-0.15,4.95-2.83,7.77C92.23,30.81,80.68,34.26,65.13,34.26z M33.13,17.91c-0.31,1.65-0.39,3,1.02,4.7   c2.16,2.61,8.2,7.98,30.25,8.12c0.25,0,0.49,0,0.74,0c19.76,0,26.07-4.35,28.71-7.26c1.48-1.63,2.06-3.07,1.89-4.79   C95.35,14.99,85.6,7.93,64.32,8.05c-22.66,0.12-30.35,5.86-31.08,9.74L33.13,17.91z"
   id="path15973" />
</g>

</svg>
